icons/currency-pound.svg

<svg xmlns="http://www.w3.org/2000/svg" width="24" height="24" viewBox="0 0 24 24">
  <path d="M12,1 C18.0751322,1 23,5.92486775 23,12 C23,18.0751322 18.0751322,23 12,23 C5.92486775,23 1,18.0751322 1,12 C1,5.92486775 5.92486775,1 12,1 Z M13,6 C11.3431233,6 10,7.34313721 10,9 L10,9 L10,11 L9,11 L8.88337887,11.0067277 C8.38604019,11.0644928 8,11.4871642 8,12 C8,12.5522847 8.44771525,13 9,13 L9,13 L10,13 L10,14 L9.9932727,14.1166268 C9.9399544,14.5757277 9.5757277,14.9399544 9.11662676,14.9932727 L9.11662676,14.9932727 L8.86682521,15.0069704 C7.71105826,15.1309607 7.71105826,16.8690393 8.86682521,16.9930296 L8.86682521,16.9930296 L9,17 L15,17 L15.1166211,16.9932723 C15.6139598,16.9355072 16,16.5128358 16,16 L16,16 L15.9932723,15.8833789 C15.9355072,15.3860402 15.5128358,15 15,15 L15,15 L11.829,15 L11.8773746,14.8517393 C11.9571711,14.5817391 12,14.2958723 12,14 L12,14 L12,13 L13,13 L13.1166211,12.9932723 C13.6139598,12.9355072 14,12.5128358 14,12 C14,11.4477153 13.5522847,11 13,11 L13,11 L12,11 L12,9 L12.0067275,8.88337644 C12.0644905,8.38602882 12.4871476,8 13,8 C13.5523026,8 14,8.44770207 14,9 L14,9 L14.0067277,9.11662113 C14.0644928,9.61395981 14.4871642,10 15,10 C15.5522847,10 16,9.55228475 16,9 C16,7.34313721 14.6568767,6 13,6 Z"/>
</svg>

<svg xmlns="http://www.w3.org/2000/svg" viewBox="0 0 24 24">
  <path d="M12 1a11 11 0 1 1 0 22 11 11 0 0 1 0-22zm1 5a3 3 0 0 0-3 3v2H8.88A1 1 0 0 0 9 13h1v1.12a1 1 0 0 1-.88.87l-.25.02c-1.16.12-1.16 1.86 0 1.98L9 17h6.12a1 1 0 0 0 .88-1v-.12a1 1 0 0 0-1-.88h-3.17l.05-.15A3 3 0 0 0 12 14v-1h1.12a1 1 0 0 0-.12-2h-1V8.88A1 1 0 0 1 14 9v.12A1 1 0 0 0 16 9a3 3 0 0 0-3-3z"/>
</svg>
